lib/healthicons/icons/solid/devices/mobile.svg

<svg fill="none" height="48" viewBox="0 0 48 48" width="48" xmlns="http://www.w3.org/2000/svg"><g fill="#333"><path clip-rule="evenodd" d="m12.9665 7.00504c-.0028-1.65686 1.3382-3.0022 2.995-3.00491l15.9722-.02616c1.6569-.00272 3.0022 1.33823 3.0049 2.99508l.0557 33.98685c.0027 1.6569-1.3382 3.0022-2.9951 3.0049l-15.9722.0262c-1.6568.0027-3.0022-1.3382-3.0049-2.9951zm1.9991.99664c-.0018-1.10457.8921-2.00147 1.9967-2.00328l13.9772-.02289c1.1046-.00181 2.0015.89215 2.0033 1.99672l.0442 26.98987c.0018 1.1045-.8921 2.0014-1.9967 2.0032l-13.9772.0229c-1.1046.0018-2.0015-.8921-2.0033-1.9967zm9.0443 33.97282c1.1032-.0018 1.996-.8984 1.9942-2.0026s-.8976-1.9979-2.0008-1.9961c-1.1031.0018-1.996.8984-1.9942 2.0026s.8976 1.9979 2.0008 1.9961z" fill-rule="evenodd"/><path d="m23.1923 27.5397-.0002-.0002c-1.5888-1.3158-2.8951-2.3977-3.8063-3.4152-.9094-1.0155-1.4092-1.9496-1.41-2.9675-.0013-1.6562 1.4179-2.9568 3.2284-2.9583 1.0241-.0008 2.0099.4352 2.653 1.125l.1172.1257.117-.1259c.642-.6908 1.627-1.1285 2.6512-1.1293 1.8104-.0015 3.2318 1.2967 3.2332 2.953.0008 1.0178-.4973 1.9528-1.4051 2.9705-.9065 1.0162-2.2053 2.0978-3.7846 3.413l-.0159.0132-.0003.0003-.7879.6523z"/></g></svg>

<svg width="48" height="48" viewBox="0 0 48 48" fill="none" xmlns="http://www.w3.org/2000/svg">
<path fill-rule="evenodd" clip-rule="evenodd" d="M12.9665 7.00504C12.9637 5.34818 14.3047 4.00284 15.9615 4.00013L31.9337 3.97397C33.5906 3.97125 34.9359 5.3122 34.9386 6.96905L34.9943 40.9559C34.997 42.6128 33.6561 43.9581 31.9992 43.9608L16.027 43.987C14.3702 43.9897 13.0248 42.6488 13.0221 40.9919L12.9665 7.00504ZM14.9656 8.00168C14.9638 6.89711 15.8577 6.00021 16.9623 5.9984L30.9395 5.97551C32.0441 5.9737 32.941 6.86766 32.9428 7.97223L32.987 34.9621C32.9888 36.0666 32.0949 36.9635 30.9903 36.9653L17.0131 36.9882C15.9085 36.99 15.0116 36.0961 15.0098 34.9915L14.9656 8.00168ZM24.0099 41.9745C25.1131 41.9727 26.0059 41.0761 26.0041 39.9719C26.0023 38.8677 25.1065 37.974 24.0033 37.9758C22.9002 37.9776 22.0073 38.8742 22.0091 39.9784C22.0109 41.0826 22.9067 41.9763 24.0099 41.9745Z" fill="#333333"/>
<path d="M23.1923 27.5397L23.1921 27.5395C21.6033 26.2237 20.297 25.1418 19.3858 24.1243C18.4764 23.1088 17.9766 22.1747 17.9758 21.1568C17.9745 19.5006 19.3937 18.2 21.2042 18.1985C22.2283 18.1977 23.2141 18.6337 23.8572 19.3235L23.9744 19.4492L24.0914 19.3233C24.7334 18.6325 25.7184 18.1948 26.7426 18.194C28.553 18.1925 29.9744 19.4907 29.9758 21.147C29.9766 22.1648 29.4785 23.0998 28.5707 24.1175C27.6642 25.1337 26.3654 26.2153 24.7861 27.5305L24.7702 27.5437L24.7699 27.544L23.982 28.1963L23.1923 27.5397Z" fill="#333333"/>
</svg>
